icon/cg/display-fullwidth.svg

<svg width="24" height="24" fill="none" xmlns="http://www.w3.org/2000/svg"><path d="M2 5h20V3H2v2ZM2 21h20v-2H2v2Z" fill="currentColor"/><path fill-rule="evenodd" clip-rule="evenodd" d="M2 7v10h20V7H2Zm2 2h16v6H4V9Z" fill="currentColor"/></svg>

<svg viewBox="0 0 24 24" fill="none" xmlns="http://www.w3.org/2000/svg" height="1em" width="1em">
  <path d="M2 5H22V3H2V5Z" fill="currentColor"/>
  <path d="M2 21H22V19H2V21Z" fill="currentColor"/>
  <path fill-rule="evenodd" clip-rule="evenodd" d="M2 7V17H22V7H2ZM4 9H20V15H4V9Z" fill="currentColor"/>
</svg>
